src/img/benefits-1.svg

<svg width="50" height="50" viewBox="0 0 50 50" fill="none" xmlns="http://www.w3.org/2000/svg">
<g opacity="0.9">
<path d="M5.03413 15.3129C5.28021 13.3072 6.9836 11.8 9.00436 11.8H42.0023C44.0695 11.8 45.7961 13.375 45.9855 15.4335L48.5982 43.8281C48.8139 46.172 46.9689 48.1946 44.615 48.1946H5.52074C3.1184 48.1946 1.25796 46.0919 1.5505 43.7075L5.03413 15.3129Z" stroke="#B01736" stroke-width="2"/>
<path d="M25 20.6367V39.3566" stroke="#B01736" stroke-width="2" stroke-linecap="round"/>
<path d="M15.1523 29.9971H34.8447" stroke="#B01736" stroke-width="2" stroke-linecap="round"/>
<path d="M34.5984 11.7996V5.59961C34.5984 3.39047 32.8076 1.59961 30.5984 1.59961H19.3984C17.1893 1.59961 15.3984 3.39047 15.3984 5.59961V11.7996" stroke="#B01736" stroke-width="2"/>
</g>
</svg>

<svg xmlns="http://www.w3.org/2000/svg" id="benefits-1" width="50" height="50" fill="none"><g stroke="#B01736" stroke-width="2" opacity=".9"><path d="M5.034 15.313a4 4 0 0 1 3.97-3.513h32.998a4 4 0 0 1 3.983 3.633l2.613 28.395a4 4 0 0 1-3.983 4.367H5.521a4 4 0 0 1-3.97-4.487l3.483-28.395Z"/><path stroke-linecap="round" d="M25 20.637v18.72M15.152 29.997h19.693"/><path d="M34.598 11.8V5.6a4 4 0 0 0-4-4h-11.2a4 4 0 0 0-4 4v6.2"/></g></svg>
